!!!OTL: ABEND WIRD ES WIEDER
!!!ARE: Europa, Mitteleuropa, Deutschland
!!!SCT: F0685
!!!YEM: Copyright 1995, estate of Helmut Schaffrath.
**kern
*ICvox
*Ivox
*M2/4
*k[b-e-a-]
*E-:
=1
{8B-
8B-
8e-
8e-
=2
4f
4f}
=3
{8g
8g
8g
8f
=4
4f
4r}
=5
{8c
8c
8f
8f
=6
4f
4a-}
=7
{8g
8g
8f
8f
=8
4b-}
{8e-
8a-
=9
4g
4f
=10
2e-}
==
!!!AGN: Geselligkeits -, Tageszeiten - Lied, Abend
!!!ONB: ESAC (Essen Associative Code) Database: FINK
!!!AMT: simple duple
!!!AIN: vox
!!!EED: Helmut Schaffrath
!!!EEV: 1.0
*-
